svg/system/loading_fill.svg

<?xml version="1.0" encoding="UTF-8"?>
<svg width="24px" height="24px" viewBox="0 0 24 24" version="1.1" xmlns="http://www.w3.org/2000/svg" xmlns:xlink="http://www.w3.org/1999/xlink">
    <title>loading_fill</title>
    <defs>
        <linearGradient x1="50%" y1="5.27054794%" x2="50%" y2="91.7931275%" id="linearGradient-1">
            <stop stop-color="#09244B" offset="0%"></stop>
            <stop stop-color="#09244B" stop-opacity="0.55" offset="100%"></stop>
        </linearGradient>
        <linearGradient x1="50%" y1="15.2398435%" x2="50%" y2="87.1497786%" id="linearGradient-2">
            <stop stop-color="#09244B" stop-opacity="0" offset="0%"></stop>
            <stop stop-color="#09244B" stop-opacity="0.55" offset="100%"></stop>
        </linearGradient>
    </defs>
    <g id="Icon" stroke="none" stroke-width="1" fill="none" fill-rule="evenodd">
        <g id="System" transform="translate(-384.000000, -562.000000)" fill-rule="nonzero">
            <g id="loading_fill" transform="translate(384.000000, 562.000000)">
                <path d="M24,0 L24,24 L0,24 L0,0 L24,0 Z M12.5934901,23.257841 L12.5819402,23.2595131 L12.5108777,23.2950439 L12.4918791,23.2987469 L12.4918791,23.2987469 L12.4767152,23.2950439 L12.4056548,23.2595131 C12.3958229,23.2563662 12.3870493,23.2590235 12.3821421,23.2649074 L12.3780323,23.275831 L12.360941,23.7031097 L12.3658947,23.7234994 L12.3769048,23.7357139 L12.4804777,23.8096931 L12.4953491,23.8136134 L12.4953491,23.8136134 L12.5071152,23.8096931 L12.6106902,23.7357139 L12.6232938,23.7196733 L12.6232938,23.7196733 L12.6266527,23.7031097 L12.609561,23.275831 C12.6075724,23.2657013 12.6010112,23.2592993 12.5934901,23.257841 L12.5934901,23.257841 Z M12.8583906,23.1452862 L12.8445485,23.1473072 L12.6598443,23.2396597 L12.6498822,23.2499052 L12.6498822,23.2499052 L12.6471943,23.2611114 L12.6650943,23.6906389 L12.6699349,23.7034178 L12.6699349,23.7034178 L12.678386,23.7104931 L12.8793402,23.8032389 C12.8914285,23.8068999 12.9022333,23.8029875 12.9078286,23.7952264 L12.9118235,23.7811639 L12.8776777,23.1665331 C12.8752882,23.1545897 12.8674102,23.1470016 12.8583906,23.1452862 L12.8583906,23.1452862 Z M12.1430473,23.1473072 C12.1332178,23.1423925 12.1221763,23.1452606 12.1156365,23.1525954 L12.1099173,23.1665331 L12.0757714,23.7811639 C12.0751323,23.7926639 12.0828099,23.8018602 12.0926481,23.8045676 L12.108256,23.8032389 L12.3092106,23.7104931 L12.3186497,23.7024347 L12.3186497,23.7024347 L12.3225043,23.6906389 L12.340401,23.2611114 L12.337245,23.2485176 L12.337245,23.2485176 L12.3277531,23.2396597 L12.1430473,23.1473072 Z" id="MingCute"></path>
                <g id="loading" transform="translate(1.500000, 1.624676)">
                    <path d="M8.74851555,0.0209901816 C9.56548078,-0.116339069 10.3390893,0.434614746 10.4764186,1.25157997 C10.6137478,2.06854519 10.062794,2.84215372 9.24582876,2.97948297 C5.66258401,3.58181499 3,6.69990493 3,10.375324 C3,14.5174597 6.35786438,17.875324 10.5,17.875324 L10.5,20.875324 C4.70101013,20.875324 0,16.1743139 0,10.375324 C0,5.22905374 3.72636206,0.865198181 8.74851555,0.0209901816 Z" id="路径" fill="url(#linearGradient-1)"></path>
                    <path d="M15.3922871,2.6729876 C15.9455725,2.05641094 16.893933,2.00510323 17.5105097,2.55838863 C19.7150762,4.53665754 21,7.3541757 21,10.375324 C21,16.1743139 16.2989899,20.875324 10.5,20.875324 L10.5,17.875324 C14.6421356,17.875324 18,14.5174597 18,10.375324 C18,8.21521621 17.0838287,6.20628055 15.506886,4.79121022 C14.8903094,4.23792483 14.8390017,3.28956426 15.3922871,2.6729876 Z" id="路径" fill="url(#linearGradient-2)"></path>
                </g>
            </g>
        </g>
    </g>
</svg>

<svg xmlns="http://www.w3.org/2000/svg" width="24" height="24"><defs><linearGradient id="a" x1="50%" x2="50%" y1="5.271%" y2="91.793%"><stop offset="0%" stop-color="#09244B"/><stop offset="100%" stop-color="#09244B" stop-opacity=".55"/></linearGradient><linearGradient id="b" x1="50%" x2="50%" y1="15.24%" y2="87.15%"><stop offset="0%" stop-color="#09244B" stop-opacity="0"/><stop offset="100%" stop-color="#09244B" stop-opacity=".55"/></linearGradient></defs><g fill="none" fill-rule="nonzero"><path d="M24 0v24H0V0h24ZM12.593 23.258l-.011.002-.071.035-.02.004-.014-.004-.071-.035c-.01-.004-.019-.001-.024.005l-.004.01-.017.428.005.02.01.013.104.074.015.004.012-.004.104-.074.012-.016.004-.017-.017-.427c-.002-.01-.009-.017-.017-.018Zm.265-.113-.013.002-.185.093-.01.01-.003.011.018.43.005.012.008.007.201.093c.012.004.023 0 .029-.008l.004-.014-.034-.614c-.003-.012-.01-.02-.02-.022Zm-.715.002a.023.023 0 0 0-.027.006l-.006.014-.034.614c0 .012.007.02.017.024l.015-.002.201-.093.01-.008.004-.011.017-.43-.003-.012-.01-.01-.184-.092Z"/><path fill="url(#a)" d="M8.749.021a1.5 1.5 0 0 1 .497 2.958A7.502 7.502 0 0 0 3 10.375a7.5 7.5 0 0 0 7.5 7.5v3c-5.799 0-10.5-4.7-10.5-10.5C0 5.23 3.726.865 8.749.021Z" transform="translate(1.5 1.625)"/><path fill="url(#b)" d="M15.392 2.673a1.5 1.5 0 0 1 2.119-.115A10.475 10.475 0 0 1 21 10.375c0 5.8-4.701 10.5-10.5 10.5v-3a7.5 7.5 0 0 0 5.007-13.084 1.5 1.5 0 0 1-.115-2.118Z" transform="translate(1.5 1.625)"/></g></svg>
